X:201
L:1/8
Q:1/4=100
M:6/8
K:A
 e | cAA ABc | dBB"^tr" f2 e | fdd eBB | cAA A2 :: e | fga gee | dBB"^tr" f2 e | fga efd | 
 cAA A2 :|

